X:2
T:Pavan \340 5: 'Lachrimae'
%%measurenb 0
%%scale 0.7
%%squarebreve
%%footer "$T	Page $P	Gumbleton Music, 2009\n"
%%MIDI program 1 43
%%MIDI program 2 44
%%MIDI program 3 44
%%MIDI program 4 44
%%MIDI program 5 44
C:Thomas Weelkes
P:Treble I
M:C|
L:1/4
K:F clef=treble 
d4 _e2 d2-|d d c2 z c f2-|f _e d3 d =B c|
d d g3 f _e2 |d4 d4 :: z2 d2 f3 _e |d2 d g2 f e2 |
d2 d2 B _e2 d| c d2 c2 =B c2-|c B2 A/G/ A4 ::
z2 A3 G2 F |E2 D d2 c2 B |A2 G g2 f2 _e|
d2 f2 _e3 d |c3 B A2 G A-|A G2 ^F HG4 :|]

